X:1
T:Mum's reel
N:lilted by Sally Sloane, NSW 1976
Z:Ian Hayden 2017
M:4/4
L:1/8
K:Gmaj
e|eaag e3d|cdef g2fg|a2ag e3d|cABG A4|
a2ag e3d|cdef g2fg|a2ag e3d|cABG A4|]
e2A2 efgf|e2A2 d2dd|e2A2 efge|a2ge d2d>d|
e2A2 efgf|e2A2 d4|e2A2 efge|afge d4|]
